frontend/public/svg/interface/key.svg

<svg width="149" height="140" viewBox="0 0 149 140" fill="none" xmlns="http://www.w3.org/2000/svg">
<g clip-path="url(#clip0)">
<path d="M50.2649 78.9446C54.8088 74.208 58.9918 69.448 63.5876 65.1248C77.5723 51.9671 91.7173 38.9827 105.797 25.9277C113.692 18.6081 121.654 11.3586 128.452 2.95275C130.647 0.238957 133.255 -0.352783 136.06 1.75694C139.752 4.58496 143.23 7.68047 146.466 11.0184C147.597 12.1649 148.147 14.1547 148.388 15.8412C148.778 18.5433 146.825 20.2376 144.294 19.3017C142.054 18.4032 139.954 17.1909 138.056 15.7013C136.118 14.2527 134.471 12.4144 132.707 10.7565C126.406 17.2613 119.963 23.9139 113.221 30.8757C116.077 33.4631 119.563 36.639 123.071 39.7929C124.061 40.6828 125.197 41.4243 126.103 42.3855C126.937 43.2667 127.639 44.2648 128.185 45.3483C128.636 46.1896 128.793 47.1574 128.63 48.0978C128.467 49.0382 127.993 49.8971 127.285 50.5378C126.676 51.2065 125.862 51.656 124.972 51.8166C124.081 51.9771 123.162 51.8398 122.357 51.4259C120.666 50.6118 119.136 49.4978 117.843 48.1378C114.836 44.8776 112.059 41.4069 109.188 38.0222C108.486 37.1939 107.781 36.3693 106.885 35.3193C89.4558 50.8956 72.1696 66.3006 56.1564 83.249C56.8361 84.1564 57.4371 84.9348 58.0096 85.7281C64.7949 95.1619 67.6271 105.586 64.1685 116.83C60.2737 129.492 50.7316 136.166 38.1224 138.885C31.669 140.234 24.9657 139.743 18.7786 137.468C9.40068 134.183 3.75529 127.526 1.7151 117.869C0.0851523 110.156 1.03156 102.645 4.01104 95.3784C6.14795 90.1712 9.52856 86.0969 14.7014 83.5821C18.5689 81.7025 22.1618 79.0736 26.1967 77.7572C34.2861 75.1206 42.5306 74.5567 50.2649 78.9446ZM30.7912 131.642C32.8762 131.353 34.7561 131.182 36.5996 130.824C50.2402 128.171 58.8074 117.093 56.3174 104.08C54.1941 92.9868 47.0706 83.7461 32.5594 85.5013C28.8263 85.955 25.1296 86.6991 21.3991 87.1787C17.172 87.7219 14.3172 90.0837 12.3224 93.6667C9.76406 98.2432 8.45478 103.41 8.52573 108.651C8.6614 120.374 12.61 127.901 24.0923 130.596C26.3422 131.128 28.6731 131.321 30.7912 131.644V131.642Z" fill="black"/>
<path d="M31.4928 121.782C27.3424 121.653 22.9173 119.172 20.2539 114.191C17.5237 109.086 18.6311 104.015 21.6275 99.3913C23.3924 96.6645 25.9318 94.9754 29.5241 95.5899C30.4413 95.7467 31.4662 95.3566 32.4282 95.1524C35.9188 94.3766 39.5614 94.6507 42.896 95.9405C46.4214 97.2984 48.3246 100.058 48.951 103.679C50.6303 113.373 43.1563 121.842 31.4928 121.782ZM31.8609 114.816C37.1188 114.886 40.465 112.376 41.2277 108.612C41.7509 106.028 40.7182 103.709 38.3787 102.993C35.6355 102.138 32.8327 101.487 29.9934 101.045C28.9846 100.894 27.317 101.361 26.8386 102.111C25.1834 104.703 24.4908 107.69 25.9234 110.62C26.4475 111.785 27.2748 112.789 28.319 113.527C29.3631 114.264 30.5861 114.71 31.8609 114.816Z" fill="black"/>
</g>
<defs>
<clipPath id="clip0">
<rect width="148" height="140" fill="white" transform="translate(0.777344)"/>
</clipPath>
</defs>
</svg>

<svg xmlns="http://www.w3.org/2000/svg" width="149" height="140" fill="none" viewBox="0 0 149 140"><g fill="#000" clip-path="url(#a)"><path d="M50.265 78.945c4.544-4.737 8.727-9.497 13.323-13.82 13.984-13.158 28.13-26.142 42.209-39.197 7.895-7.32 15.857-14.57 22.655-22.975 2.195-2.714 4.803-3.306 7.608-1.196a95 95 0 0 1 10.406 9.261c1.131 1.147 1.681 3.137 1.922 4.823.39 2.702-1.563 4.397-4.094 3.46a25.5 25.5 0 0 1-6.238-3.6c-1.938-1.448-3.585-3.287-5.349-4.944-6.301 6.504-12.744 13.157-19.486 20.119 2.856 2.587 6.342 5.763 9.85 8.917.99.89 2.126 1.631 3.032 2.593.834.88 1.536 1.879 2.082 2.962a4.274 4.274 0 0 1-.9 5.19 4.12 4.12 0 0 1-4.928.888 15.5 15.5 0 0 1-4.514-3.288c-3.007-3.26-5.784-6.731-8.655-10.116-.702-.828-1.407-1.653-2.303-2.703-17.43 15.577-34.715 30.982-50.729 47.93.68.907 1.281 1.686 1.854 2.48 6.785 9.433 9.617 19.857 6.158 31.101-3.894 12.662-13.436 19.336-26.046 22.055a35.2 35.2 0 0 1-19.343-1.417c-9.378-3.285-15.024-9.942-17.064-19.599-1.63-7.713-.683-15.224 2.296-22.49 2.137-5.208 5.518-9.282 10.69-11.797 3.868-1.88 7.46-4.508 11.496-5.825 8.09-2.636 16.334-3.2 24.068 1.188M30.79 131.642c2.085-.289 3.965-.46 5.809-.818 13.64-2.653 22.207-13.731 19.717-26.744-2.123-11.093-9.246-20.334-23.758-18.579-3.733.454-7.43 1.198-11.16 1.678-4.227.543-7.082 2.905-9.077 6.488a29.9 29.9 0 0 0-3.796 14.984c.135 11.723 4.084 19.25 15.566 21.945 2.25.532 4.581.725 6.7 1.048z"/><path d="M31.493 121.782c-4.15-.129-8.576-2.61-11.24-7.591-2.73-5.105-1.622-10.176 1.375-14.8 1.764-2.727 4.304-4.416 7.896-3.801.917.157 1.942-.233 2.904-.438a18.1 18.1 0 0 1 10.468.788c3.525 1.358 5.429 4.118 6.055 7.739 1.68 9.694-5.795 18.163-17.458 18.103m.368-6.966c5.258.07 8.604-2.44 9.367-6.204.523-2.584-.51-4.903-2.85-5.619a58 58 0 0 0-8.385-1.948c-1.008-.151-2.676.316-3.154 1.066-1.656 2.592-2.348 5.579-.916 8.509a7.16 7.16 0 0 0 5.938 4.196"/></g><defs><clipPath id="a"><path fill="#fff" d="M.777 0h148v140h-148z"/></clipPath></defs></svg>
